lib/logo_tmp/nrk-logo-nrk-p13-title-below-on-dark.svg

<svg width="40" height="36" viewBox="0 0 40 36" fill="none" xmlns="http://www.w3.org/2000/svg">
<path d="M0 15.0033V1.00459H4.59339V15.0033H0ZM10.8428 3.23256L13.4844 15.0033H8.45737L5.30307 1.00459H8.12254C8.76907 0.996197 9.39641 1.22411 9.88691 1.64544C10.3782 2.04909 10.7158 2.60946 10.8428 3.23256ZM14.1744 15.0033V1.00459H18.7678V15.0033H14.1744ZM22.2372 6.3281C21.7422 6.33292 21.2552 6.20342 20.828 5.95344C20.4064 5.70979 20.0563 5.3596 19.8127 4.93801C19.5624 4.5107 19.4329 4.02354 19.4378 3.52835C19.4321 3.03619 19.5618 2.55193 19.8127 2.12848C20.0589 1.71147 20.4086 1.36509 20.828 1.12292C21.2553 0.873236 21.7423 0.74375 22.2372 0.748264C22.7292 0.742965 23.2133 0.872567 23.6369 1.12292C24.0521 1.36721 24.3981 1.7133 24.6424 2.12848C24.893 2.55204 25.0226 3.03623 25.0172 3.52835C25.0218 4.0235 24.8923 4.51058 24.6424 4.93801C24.4007 5.35775 24.0542 5.70764 23.6369 5.95344C23.2133 6.20429 22.7289 6.33392 22.2366 6.3281H22.2372ZM25.7269 15.0033V1.00459H30.3207V15.0033H25.7269ZM36.136 8.65459C36.1489 8.66817 36.2475 8.82918 36.4317 9.13763C36.6159 9.44609 36.8558 9.84045 37.1513 10.3207C37.447 10.8006 37.759 11.3099 38.0874 11.8486C38.4157 12.3873 38.7247 12.8967 39.0143 13.3767C39.3028 13.8567 39.6313 14.3989 40 15.0033H34.9531C34.6375 14.4907 34.3515 14.0274 34.0952 13.6133C33.8389 13.1993 33.5665 12.7523 33.2778 12.2726C32.9884 11.7932 32.7024 11.3266 32.4196 10.8727C32.1368 10.4188 31.8938 10.0212 31.6905 9.67988C31.4863 9.33835 31.3449 9.10829 31.2663 8.98977C31.0713 8.69567 30.9559 8.35599 30.9315 8.00395C30.951 7.66607 31.0597 7.33946 31.2466 7.05728C31.3254 6.92583 31.47 6.69248 31.6803 6.3573C31.8906 6.02212 32.137 5.62454 32.4196 5.16449C32.7021 4.70444 32.9882 4.23452 33.2778 3.75475C33.5674 3.27499 33.8398 2.82476 34.0952 2.40414C34.3519 1.98396 34.6379 1.51733 34.9531 1.00427H40L36.0962 7.37273C35.9754 7.56181 35.9073 7.77972 35.8991 8.00395C35.9121 8.23936 35.9942 8.46569 36.1353 8.65459H36.136Z" fill="white"/>
<path d="M9.50227 22.8165C9.25988 22.4428 8.9488 22.1183 8.58554 21.8604C8.1806 21.5768 7.73078 21.3635 7.25489 21.2295C6.67724 21.0701 6.07974 20.9939 5.48056 21.0031H0V35.0003H2.07002V29.9732H5.63826C6.44371 29.9856 7.23857 29.7885 7.94484 29.4011C8.62179 29.0263 9.18399 28.4745 9.57126 27.8046C9.98646 27.0652 10.1942 26.2274 10.1726 25.3797C10.1743 24.9217 10.1214 24.465 10.0149 24.0195C9.91253 23.5926 9.73924 23.186 9.50227 22.8165ZM7.66889 27.0653C7.40379 27.4809 7.0138 27.8018 6.55499 27.982C5.99809 28.1927 5.4055 28.2932 4.81026 28.2777H2.07002V22.7186H5.08628C5.66244 22.6968 6.2359 22.8081 6.76203 23.0439C7.18064 23.2462 7.52285 23.578 7.73788 23.9902C7.96571 24.4525 8.07736 24.9634 8.06316 25.4786C8.08578 26.0343 7.94898 26.5849 7.66889 27.0653Z" fill="#FFA90A"/>
<path d="M14.3813 21.4664C14.0987 21.6176 13.8228 21.7589 13.5536 21.8903C13.2844 22.0217 13.0116 22.1531 12.7352 22.2846C12.4594 22.416 12.1768 22.5343 11.8874 22.6394C11.598 22.7445 11.2894 22.8497 10.9612 22.9549L11.3946 24.6306C11.7888 24.5123 12.147 24.394 12.469 24.2757C12.7843 24.1601 13.0936 24.0285 13.3956 23.8814C13.6915 23.7368 13.9872 23.5791 14.2827 23.4083L14.2929 23.4024V35.001H16.3429V21.0038H15.2786C14.963 21.1606 14.6639 21.3148 14.3813 21.4664Z" fill="#FFA90A"/>
<path d="M27.0871 29.756C26.9504 29.3624 26.7359 29.0003 26.4563 28.6914C26.1657 28.3791 25.8132 28.1307 25.4212 27.9623C24.9723 27.7689 24.4974 27.6427 24.0117 27.5877V27.5283C24.6013 27.3409 25.1499 27.0432 25.6283 26.651C26.0551 26.301 26.4071 25.8687 26.6632 25.3797C26.9053 24.9105 27.0305 24.3897 27.028 23.8617C27.0368 23.4135 26.9352 22.9699 26.7322 22.5701C26.5243 22.1836 26.2269 21.8525 25.8648 21.6044C25.4438 21.3178 24.9722 21.1138 24.475 21.0031C23.8639 20.8646 23.2386 20.7984 22.612 20.806C22.1997 20.8074 21.788 20.8371 21.3799 20.8951C20.9574 20.953 20.5392 21.0386 20.128 21.1513C19.7322 21.2584 19.349 21.4071 18.9846 21.5949L19.2605 23.1523C19.5494 23.0341 19.8287 22.9321 20.0984 22.8464C20.368 22.7608 20.6276 22.6918 20.8771 22.6394C21.1266 22.5873 21.3698 22.548 21.6066 22.5215C21.8356 22.4956 22.066 22.4824 22.2965 22.482C22.7136 22.4752 23.1302 22.5148 23.5385 22.6C23.8345 22.6596 24.1159 22.777 24.3665 22.9453C24.5708 23.0893 24.7312 23.2871 24.8299 23.5167C24.934 23.7766 24.9843 24.055 24.9777 24.3349C24.9833 24.7195 24.8918 25.0993 24.7115 25.4392C24.5282 25.7741 24.2722 26.0638 23.9624 26.2869C23.613 26.5366 23.2227 26.7234 22.8091 26.8389C22.3282 26.9749 21.8303 27.0413 21.3305 27.036H20.956L20.7194 28.5741H21.3503C21.932 28.5661 22.5131 28.6156 23.0851 28.722C23.5134 28.7986 23.9241 28.9522 24.2975 29.1754C24.6029 29.3614 24.8517 29.6273 25.0171 29.9443C25.1819 30.2849 25.263 30.66 25.2537 31.0384C25.2637 31.4211 25.1897 31.8013 25.0368 32.1522C24.8902 32.4634 24.6619 32.729 24.3764 32.9208C24.0348 33.1435 23.6532 33.2975 23.2527 33.3742C22.7239 33.4802 22.1852 33.5297 21.6459 33.5221C21.4488 33.5221 21.2546 33.5158 21.0644 33.5027C20.8741 33.4895 20.6731 33.4698 20.4631 33.4432C20.2532 33.4166 20.0324 33.3814 19.8027 33.3351C19.573 33.2888 19.3197 33.2336 19.0437 33.1672L18.7874 34.8429C19.0763 34.8955 19.3556 34.9448 19.6253 34.9908C19.8949 35.0368 20.161 35.0762 20.4237 35.1091C20.6865 35.1415 20.9428 35.1644 21.1925 35.1777C21.4423 35.1911 21.6854 35.1978 21.922 35.1978C22.5502 35.2027 23.1775 35.1465 23.7948 35.0299C24.3195 34.9322 24.8274 34.7597 25.303 34.5176C25.7182 34.3067 26.0921 34.0229 26.4069 33.6798C26.7032 33.3501 26.9311 32.9647 27.0772 32.5462C27.2336 32.0861 27.3102 31.6028 27.3039 31.1169C27.3099 30.6542 27.2366 30.1939 27.0871 29.756Z" fill="#FFA90A"/>
</svg>

<svg xmlns="http://www.w3.org/2000/svg" viewBox="0 0 40 36"><path fill="#fff" d="M0 15.003V1.005h4.593v13.998H0Zm10.843-11.77 2.641 11.77H8.457L5.303 1.005h2.82a2.655 2.655 0 0 1 1.764.64c.491.404.829.964.956 1.588Zm3.331 11.77V1.005h4.594v13.998h-4.594Zm8.063-8.675a2.737 2.737 0 0 1-1.409-.375 2.778 2.778 0 0 1-1.015-1.015 2.735 2.735 0 0 1-.375-1.41 2.685 2.685 0 0 1 .375-1.4 2.812 2.812 0 0 1 3.824-1.005c.415.244.761.59 1.005 1.005.251.424.38.908.375 1.4.005.496-.125.983-.375 1.41a2.8 2.8 0 0 1-1.005 1.015c-.424.251-.908.38-1.4.375Zm3.49 8.675V1.005h4.594v13.998h-4.594Zm10.409-6.348c.013.013.111.174.296.483.184.308.424.702.72 1.183a377.185 377.185 0 0 1 1.862 3.056c.289.48.617 1.022.986 1.626h-5.047l-.858-1.39c-.256-.414-.529-.86-.817-1.34-.29-.48-.576-.946-.858-1.4a71.06 71.06 0 0 1-.73-1.193 21.112 21.112 0 0 0-.424-.69 2.04 2.04 0 0 1-.334-.986c.019-.338.128-.665.315-.947.078-.131.223-.365.433-.7a216.7 216.7 0 0 0 1.598-2.603l.817-1.35.858-1.4H40l-3.904 6.369c-.12.189-.189.407-.197.63.013.236.095.463.236.652h.001Z"/><path fill="#FFA90A" d="M9.502 22.817a3.525 3.525 0 0 0-.916-.957 4.397 4.397 0 0 0-1.331-.63 6.307 6.307 0 0 0-1.774-.227H0V35h2.07v-5.027h3.568c.806.013 1.6-.184 2.307-.572a4.264 4.264 0 0 0 1.626-1.596c.415-.74.623-1.578.602-2.425a5.759 5.759 0 0 0-.158-1.36 3.923 3.923 0 0 0-.513-1.203ZM7.67 27.065a2.333 2.333 0 0 1-1.114.917c-.557.21-1.15.311-1.745.296H2.07v-5.56h3.016a3.75 3.75 0 0 1 1.676.326c.419.202.76.534.976.946.228.463.34.973.325 1.489a2.915 2.915 0 0 1-.394 1.586ZM14.381 21.466c-.282.152-.558.293-.827.424-.27.132-.542.263-.819.395-.276.131-.558.25-.848.354-.289.105-.598.21-.926.316l.434 1.676a18.81 18.81 0 0 0 1.074-.355c.315-.116.625-.247.927-.395.295-.144.591-.302.887-.473l.01-.006v11.599h2.05V21.004h-1.064c-.316.157-.615.31-.898.462ZM27.087 29.756a3.104 3.104 0 0 0-.63-1.065 3.068 3.068 0 0 0-1.036-.729 4.978 4.978 0 0 0-1.41-.374v-.06a4.883 4.883 0 0 0 1.617-.877 4.11 4.11 0 0 0 1.035-1.271c.242-.47.367-.99.365-1.518a2.734 2.734 0 0 0-.296-1.292 2.75 2.75 0 0 0-.867-.966 4.023 4.023 0 0 0-1.39-.6 7.99 7.99 0 0 0-1.863-.198 9.738 9.738 0 0 0-2.484.345 5.806 5.806 0 0 0-1.143.444l.276 1.557c.288-.118.568-.22.837-.306a7.833 7.833 0 0 1 1.508-.325c.23-.025.46-.039.69-.039.418-.007.834.033 1.242.118a2.3 2.3 0 0 1 .828.345c.205.144.365.342.464.572.104.26.154.538.148.818.005.384-.086.764-.267 1.104-.183.335-.439.625-.749.848-.349.25-.74.436-1.153.552a5.23 5.23 0 0 1-1.479.197h-.374l-.237 1.538h.631a8.823 8.823 0 0 1 1.735.148c.428.077.84.23 1.212.453.306.186.555.452.72.77.165.34.246.715.237 1.093.01.383-.064.763-.217 1.114a1.903 1.903 0 0 1-.66.769 3.138 3.138 0 0 1-1.124.453 7.629 7.629 0 0 1-1.607.148c-.197 0-.391-.006-.582-.02-.19-.013-.39-.032-.6-.059a9.187 9.187 0 0 1-.661-.108 20.88 20.88 0 0 1-.76-.168l-.256 1.676c.29.052.569.102.838.148.27.046.536.085.799.118.262.032.519.055.768.069.25.013.493.02.73.02a9.684 9.684 0 0 0 1.873-.168 5.574 5.574 0 0 0 1.508-.512c.415-.211.79-.495 1.104-.838.296-.33.524-.715.67-1.134.157-.46.233-.943.227-1.43a4.05 4.05 0 0 0-.217-1.36Z"/></svg>
